X:382
T:Kinrara
R:Strathspey
B:The Athole Collection
M:C
L:1/8
K:B_
F|B>cB>d F<B G/F/E/D/|B<F B>d c<C C>A|B>cB>d F<B G/F/E/D/|
E<g f>e d<BB:|
f|d>f e/d/c/B/ b>Be>g|f>g e/d/c/B/ d<c cd/e/|f>Bd>B g>Be>g|
F>B cB/c/ d<B ~B>d|fg/a/ b>B g>Bf>B|e>cd>B A>cc>d|
B<F G<BF<B G/F/E/D/|E<g f>e d<B~B||

